src/assets/duotone/BagTick.svg

<svg width="24" height="24" viewBox="0 0 24 24"  xmlns="http://www.w3.org/2000/svg">
<path opacity="0.4" d="M19.24 5.57957H18.84L15.46 2.19957C15.19 1.92957 14.75 1.92957 14.47 2.19957C14.2 2.46957 14.2 2.90957 14.47 3.18957L16.86 5.57957H7.14L9.53 3.18957C9.8 2.91957 9.8 2.47957 9.53 2.19957C9.26 1.92957 8.82 1.92957 8.54 2.19957L5.17 5.57957H4.77C3.87 5.57957 2 5.57957 2 8.13957C2 9.10957 2.2 9.74957 2.62 10.1696C2.86 10.4196 3.15 10.5496 3.46 10.6196C3.75 10.6896 4.06 10.6996 4.36 10.6996H19.64C19.95 10.6996 20.24 10.6796 20.52 10.6196C21.36 10.4196 22 9.81957 22 8.13957C22 5.57957 20.13 5.57957 19.24 5.57957Z" />
<path d="M19.66 10.7004H4.35996C4.06996 10.7004 3.74996 10.6904 3.45996 10.6104L4.71996 18.3004C5.00996 20.0204 5.75996 22.0004 9.08996 22.0004H14.7C18.07 22.0004 18.67 20.3104 19.03 18.4204L20.54 10.6104C20.26 10.6804 19.96 10.7004 19.66 10.7004ZM14.88 15.0504L11.63 18.0504C11.49 18.1804 11.3 18.2504 11.12 18.2504C10.93 18.2504 10.74 18.1804 10.59 18.0304L9.08996 16.5304C8.79996 16.2404 8.79996 15.7604 9.08996 15.4704C9.37996 15.1804 9.85996 15.1804 10.15 15.4704L11.14 16.4604L13.86 13.9504C14.16 13.6704 14.64 13.6904 14.92 13.9904C15.21 14.3004 15.19 14.7704 14.88 15.0504Z" />
</svg>

<?xml version="1.0" encoding="UTF-8"?>
<svg width="24" height="24" viewBox="0 0 24 24" xmlns="http://www.w3.org/2000/svg">
 <path d="m19.24 5.5796h-0.4l-3.38-3.38c-0.27-0.27-0.71-0.27-0.99 0-0.27 0.27-0.27 0.71 0 0.99l2.39 2.39h-9.72l2.39-2.39c0.27-0.27 0.27-0.71 0-0.99-0.27-0.27-0.71-0.27-0.99 0l-3.37 3.38h-0.4c-0.9 0-2.77 0-2.77 2.56 0 0.97 0.2 1.61 0.62 2.03 0.24 0.25 0.53 0.38 0.84 0.45 0.29 0.07 0.6 0.08 0.9 0.08h15.28c0.31 0 0.6-0.02 0.88-0.08 0.84-0.2 1.48-0.80003 1.48-2.48 0-2.56-1.87-2.56-2.76-2.56z" opacity=".4"/>
 <path d="m19.66 10.7h-15.3c-0.29 0-0.61-0.01-0.9-0.09l1.26 7.69c0.29 1.72 1.04 3.7 4.37 3.7h5.61c3.37 0 3.97-1.69 4.33-3.58l1.51-7.81c-0.28 0.07-0.58 0.09-0.88 0.09zm-4.78 4.35-3.25 3c-0.14 0.13-0.33 0.2-0.51 0.2-0.19 0-0.38-0.07-0.53-0.22l-1.5-1.5c-0.29-0.29-0.29-0.77 0-1.06s0.77-0.29 1.06 0l0.99 0.99 2.72-2.51c0.3-0.28 0.78-0.26 1.06 0.04 0.29 0.31 0.27 0.78-0.04 1.06z"/>
</svg>
